_includes/svg/search.svg

<svg width="100px" height="100px" viewBox="0 0 100 100" version="1.1" xmlns="http://www.w3.org/2000/svg" xmlns:xlink="http://www.w3.org/1999/xlink">
    <!-- Generator: Sketch 43.2 (39069) - http://www.bohemiancoding.com/sketch -->
    <title>search4</title>
    <defs></defs>
    <g id="Page-1" stroke="none" stroke-width="1" fill="none" fill-rule="evenodd">
        <g id="CTreposition" transform="translate(-244.000000, -1404.000000)" fill-rule="nonzero">
            <g id="search4" transform="translate(244.000000, 1404.000000)">
                <path d="M97.3902887,85.8696335 C98.9834646,87.4586387 99.7787402,89.5450262 99.7787402,91.6340314 C99.7787402,93.7204188 98.9834646,95.8068063 97.3902887,97.3958115 C95.7971129,98.9848168 93.7026247,99.7806283 91.6107612,99.7806283 C89.5188976,99.7806283 87.4270341,98.9848168 85.8338583,97.3958115 L62.0097113,73.6340314 C61.6396325,73.2675393 61.4322835,72.7675393 61.4322835,72.2465969 C61.4322835,71.7256545 61.6396325,71.2256545 62.0097113,70.8591623 L62.9624672,69.9089005 L60.6238845,67.5764398 C53.8811024,72.7623037 45.7629921,75.3565445 37.6475066,75.3565445 C28.0018373,75.3565445 18.356168,71.6968586 11.0149606,64.3722513 C-3.67007874,49.7256545 -3.67007874,25.8931937 11.0149606,11.2465969 C25.7,-3.4 49.5950131,-3.4 64.2800525,11.2465969 C77.7997375,24.7335079 78.8706037,46.008377 67.4926509,60.7282723 L69.8286089,63.0581152 L70.7813648,62.1078534 C71.5503937,61.3408377 72.7971129,61.3408377 73.5661417,62.1078534 L97.3902887,85.8696335 Z M94.6057743,94.6212042 C96.2566929,92.9719895 96.2566929,90.2939791 94.6057743,88.6473822 L72.1753281,66.2730366 L66.1858268,72.2468586 L88.616273,94.6212042 C90.2671916,96.2675393 92.9548556,96.2675393 94.6057743,94.6212042 Z M71.3748031,37.8094241 C71.3748031,28.8251309 67.8656168,20.3774869 61.4955381,14.0240838 C55.1254593,7.67068063 46.655643,4.17068063 37.647769,4.17068063 C28.6372703,4.17068063 20.1674541,7.67068063 13.7973753,14.0240838 C7.42729659,20.3774869 3.92073491,28.8251309 3.92073491,37.8094241 C3.92073491,46.7937173 7.42729659,55.2413613 13.7973753,61.5947644 C20.1674541,67.9481675 28.6372703,71.4481675 37.647769,71.4481675 C46.655643,71.4481675 55.1254593,67.9481675 61.4955381,61.5947644 C67.8656168,55.2413613 71.3748031,46.7939791 71.3748031,37.8094241 Z M65.7472441,67.1316754 L67.0464567,65.8358639 L64.9204724,63.715445 C64.7104987,63.9379581 64.4952756,64.1552356 64.2800525,64.3725131 C64.0622047,64.5897906 63.8417323,64.8018325 63.6212598,65.0112565 L65.7472441,67.1316754 Z" id="Shape" fill="#2D527C"></path>
                <path d="M94.6057743,88.6473822 C96.2566929,90.2939791 96.2566929,92.9719895 94.6057743,94.6212042 C92.9548556,96.267801 90.2671916,96.267801 88.616273,94.6212042 L66.1858268,72.2468586 L72.1753281,66.2730366 L94.6057743,88.6473822 Z" id="Shape" fill="#0093FF"></path>
                <path d="M61.4955381,14.0240838 C67.8656168,20.3774869 71.3748031,28.8251309 71.3748031,37.8094241 C71.3748031,46.7937173 67.8656168,55.2413613 61.4955381,61.5947644 C55.1254593,67.9481675 46.655643,71.4481675 37.647769,71.4481675 C28.6372703,71.4481675 20.1674541,67.9481675 13.7973753,61.5947644 C7.42729659,55.2413613 3.92073491,46.7937173 3.92073491,37.8094241 C3.92073491,28.8251309 7.42729659,20.3774869 13.7973753,14.0240838 C20.1674541,7.67068063 28.6372703,4.17068063 37.647769,4.17068063 C46.655643,4.17068063 55.1251969,7.67068063 61.4955381,14.0240838 Z M67.2223097,37.8094241 C67.2223097,29.9298429 64.1435696,22.5240838 58.5582677,16.9507853 C52.9729659,11.3801047 45.5451444,8.31204188 37.6475066,8.31204188 C29.7472441,8.31204188 22.3194226,11.3801047 16.7341207,16.9507853 C11.1488189,22.5240838 8.07270341,29.9298429 8.07270341,37.8094241 C8.07270341,45.6890052 11.1488189,53.0947644 16.7341207,58.6680628 C22.3194226,64.2387435 29.7472441,67.3068063 37.6475066,67.3068063 C45.5451444,67.3068063 52.9729659,64.2387435 58.5582677,58.6680628 C64.1435696,53.0947644 67.2223097,45.689267 67.2223097,37.8094241 Z" id="Shape" fill="#13BA8E"></path>
                <path d="M67.0464567,65.8356021 L65.7472441,67.1314136 L63.6212598,65.0109948 C63.8417323,64.8015707 64.0622047,64.5895288 64.2800525,64.3722513 C64.4952756,64.1549738 64.7104987,63.9376963 64.9204724,63.7151832 L67.0464567,65.8356021 Z" id="Shape" fill="#13BA8E"></path>
                <path d="M58.5582677,16.9507853 C64.1435696,22.5240838 67.2223097,29.9298429 67.2223097,37.8094241 C67.2223097,45.6890052 64.1435696,53.0947644 58.5582677,58.6680628 C52.9729659,64.2387435 45.5451444,67.3068063 37.6475066,67.3068063 C29.7472441,67.3068063 22.3194226,64.2387435 16.7341207,58.6680628 C11.1488189,53.0947644 8.07270341,45.6890052 8.07270341,37.8094241 C8.07270341,29.9298429 11.1488189,22.5240838 16.7341207,16.9507853 C22.3194226,11.3801047 29.7472441,8.31204188 37.6475066,8.31204188 C45.5451444,8.31230366 52.9729659,11.3801047 58.5582677,16.9507853 Z M55.776378,55.8908377 C65.7711286,45.9196335 65.7711286,29.6997382 55.776378,19.728534 C50.9338583,14.8986911 44.4955381,12.2390052 37.647769,12.2390052 C30.8,12.2390052 24.3616798,14.8986911 19.5191601,19.728534 C9.52178478,29.6997382 9.52178478,45.9196335 19.5191601,55.8908377 C24.3616798,60.7206806 30.8,63.3803665 37.647769,63.3803665 C44.4955381,63.3803665 50.9335958,60.7204188 55.776378,55.8908377 Z" id="Shape" fill="#2D527C"></path>
                <path d="M53.9548556,21.5450262 C54.7238845,22.3120419 54.7238845,23.5528796 53.9548556,24.3198953 C53.5690289,24.704712 53.0677165,24.8958115 52.5637795,24.8958115 C52.0598425,24.8958115 51.5559055,24.704712 51.1700787,24.3198953 C50.0834646,23.2361257 48.8734908,22.2858639 47.5716535,21.4979058 C46.6425197,20.9350785 46.3485564,19.7256545 46.9128609,18.7989529 C47.4771654,17.8748691 48.6897638,17.5790576 49.6188976,18.1418848 C51.1858268,19.0947644 52.6448819,20.2387435 53.9548556,21.5450262 Z" id="Shape" fill="#000000"></path>
                <path d="M53.9548556,51.2989529 C54.7238845,52.0659686 54.7238845,53.3068063 53.9548556,54.073822 C49.5847769,58.4324607 43.7711286,60.8146597 37.6845144,60.8146597 C36.7658793,60.8146597 35.8419948,60.7596859 34.9154856,60.6497382 C33.8367454,60.5240838 33.0650919,59.547644 33.1937008,58.4691099 C33.319685,57.3931937 34.2986877,56.6235602 35.3800525,56.7518325 C41.2435696,57.4455497 46.9994751,55.4586387 51.1700787,51.2989529 C51.9388451,50.532199 53.1855643,50.532199 53.9548556,51.2989529 Z" id="Shape" fill="#000000"></path>
                <path d="M41.2120735,15.0816754 C42.288189,15.2492147 43.0230971,16.2518325 42.8551181,17.3251309 C42.6871391,18.3958115 41.6818898,19.1287958 40.6057743,18.9612565 C34.5874016,18.0267016 28.4246719,20.0293194 24.1228346,24.3198953 C23.7396325,24.704712 23.2356955,24.8958115 22.7317585,24.8958115 C22.2278215,24.8958115 21.7238845,24.704712 21.3380577,24.3198953 C20.5690289,23.5528796 20.5690289,22.3120419 21.3380577,21.5450262 C26.5267717,16.3698953 33.9545932,13.9560209 41.2120735,15.0816754 Z" id="Shape" fill="#000000"></path>
                <path d="M27.5427822,54.0109948 C28.464042,54.5842932 28.7448819,55.7963351 28.1700787,56.7151832 C27.7973753,57.3120419 27.1543307,57.639267 26.4981627,57.639267 C26.143832,57.639267 25.7816273,57.5450262 25.4587927,57.3434555 C23.9732283,56.4193717 22.5874016,55.3198953 21.3380577,54.073822 C20.5690289,53.3068063 20.5690289,52.0659686 21.3380577,51.2989529 C22.1070866,50.5319372 23.3538058,50.5319372 24.1228346,51.2989529 C25.1593176,52.3332461 26.3091864,53.2442408 27.5427822,54.0109948 Z" id="Shape" fill="#000000"></path>
            </g>
        </g>
    </g>
</svg>

<svg width="100" height="100" viewBox="0 0 100 100" xmlns="http://www.w3.org/2000/svg"><g fill-rule="nonzero" fill="none"><path d="M97.39 85.87c1.593 1.59 2.39 3.675 2.39 5.764 0 2.086-.797 4.173-2.39 5.762-1.593 1.59-3.687 2.385-5.78 2.385-2.09 0-4.183-.795-5.776-2.384L62.01 73.634c-.37-.366-.578-.866-.578-1.387 0-.52.208-1.02.578-1.388l.952-.95-2.338-2.334c-6.743 5.186-14.86 7.78-22.976 7.78-9.646 0-19.292-3.66-26.633-10.984-14.685-14.646-14.685-38.48 0-53.125C25.7-3.4 49.595-3.4 64.28 11.247c13.52 13.487 14.59 34.76 3.213 49.48l2.336 2.33.95-.95c.77-.766 2.017-.766 2.786 0L97.39 85.87zm-2.784 8.75c1.65-1.648 1.65-4.326 0-5.973l-22.43-22.374-5.99 5.974 22.43 22.374c1.65 1.648 4.34 1.648 5.99 0zm-23.23-56.81c0-8.985-3.51-17.433-9.88-23.786-6.37-6.353-14.84-9.853-23.848-9.853-9.01 0-17.48 3.5-23.85 9.854-6.37 6.353-9.877 14.8-9.877 23.785 0 8.984 3.507 17.43 9.877 23.785 6.37 6.353 14.84 9.853 23.85 9.853 9.01 0 17.478-3.5 23.85-9.853 6.37-6.354 9.878-14.8 9.878-23.786zm-5.63 29.322l1.3-1.296-2.126-2.12c-.21.222-.425.44-.64.657-.218.217-.438.43-.66.638l2.127 2.122z" fill="#2D527C"/><path d="M94.606 88.647c1.65 1.647 1.65 4.325 0 5.974-1.65 1.648-4.34 1.648-5.99 0l-22.43-22.373 5.99-5.974 22.43 22.374z" fill="#0093FF"/><path d="M61.496 14.024c6.37 6.353 9.88 14.8 9.88 23.785 0 8.984-3.51 17.43-9.88 23.785-6.37 6.353-14.84 9.853-23.848 9.853-9.01 0-17.48-3.5-23.85-9.853-6.37-6.354-9.877-14.8-9.877-23.786 0-8.985 3.507-17.433 9.877-23.786 6.37-6.353 14.84-9.853 23.85-9.853 9.01 0 17.478 3.5 23.85 9.854zm5.726 23.785c0-7.88-3.078-15.286-8.664-20.86-5.585-5.57-13.013-8.638-20.91-8.638-7.9 0-15.33 3.068-20.914 8.64-5.585 5.572-8.66 12.978-8.66 20.857 0 7.88 3.075 15.285 8.66 20.858 5.585 5.57 13.013 8.64 20.914 8.64 7.897 0 15.325-3.07 20.91-8.64 5.586-5.573 8.664-12.98 8.664-20.86zM67.046 65.836l-1.3 1.295-2.125-2.12c.222-.208.442-.42.66-.638.215-.217.43-.434.64-.657l2.126 2.12z" fill="#13BA8E"/><path d="M58.558 16.95c5.586 5.574 8.664 12.98 8.664 20.86 0 7.88-3.078 15.285-8.664 20.858-5.585 5.57-13.013 8.64-20.91 8.64-7.9 0-15.33-3.07-20.914-8.64-5.585-5.573-8.66-12.98-8.66-20.86 0-7.878 3.075-15.284 8.66-20.857 5.585-5.57 13.013-8.638 20.914-8.638 7.897 0 15.325 3.068 20.91 8.64zm-2.782 38.94c9.995-9.97 9.995-26.19 0-36.16-4.842-4.83-11.28-7.49-18.128-7.49-6.848 0-13.286 2.66-18.13 7.49-9.996 9.97-9.996 26.19 0 36.16 4.844 4.83 11.282 7.49 18.13 7.49 6.848 0 13.286-2.66 18.128-7.49z" fill="#2D527C"/><path d="M53.955 21.545c.77.767.77 2.008 0 2.775-.386.385-.887.576-1.39.576-.505 0-1.01-.19-1.395-.576-1.087-1.084-2.297-2.034-3.598-2.822-.93-.563-1.223-1.772-.66-2.7.565-.923 1.778-1.22 2.707-.656 1.566.953 3.025 2.097 4.335 3.403zM53.955 51.3c.77.766.77 2.007 0 2.774-4.37 4.358-10.184 6.74-16.27 6.74-.92 0-1.843-.054-2.77-.164-1.078-.126-1.85-1.102-1.72-2.18.125-1.077 1.104-1.846 2.185-1.718 5.864.694 11.62-1.293 15.79-5.453.77-.768 2.016-.768 2.785 0zM41.212 15.082c1.076.167 1.81 1.17 1.643 2.243-.168 1.07-1.173 1.804-2.25 1.636-6.018-.933-12.18 1.07-16.482 5.36-.383.385-.887.576-1.39.576-.505 0-1.01-.19-1.395-.576-.77-.767-.77-2.008 0-2.775 5.19-5.175 12.617-7.59 19.874-6.463zM27.543 54.01c.92.574 1.202 1.786.627 2.705-.373.597-1.016.924-1.672.924-.354 0-.716-.095-1.04-.297-1.485-.924-2.87-2.023-4.12-3.27-.77-.766-.77-2.007 0-2.774.77-.768 2.016-.768 2.785 0 1.036 1.033 2.186 1.944 3.42 2.71z" fill="#000"/></g></svg>
